X: 18062
T: Humours Of Ballinahulla, The
R: jig
M: 6/8
K: Gmajor
|:~B3 G2D|GBd edB|~A3 DFA|1 DFA cBA:|2 AGF Gde||
|:~f3 def|~g3 efg|f2A ~A3|BAF Ade|
~f3 def|~g3 e2A|Bcd ecA|1 dfe d3:|2 dfe d2A||

